html/assets/images/dynamic/Masdar Free Zone/twitter.svg

<svg xmlns="http://www.w3.org/2000/svg" width="24" height="19"
                                            viewBox="0 0 24 19" fill="none">
                                            <path
                                                d="M4.83783 2.84082L10.3955 10.272L4.80273 16.3139H6.06145L10.9579 11.0241L14.9142 16.3139H19.1976L13.3272 8.46469L18.5329 2.84082H17.2742L12.7648 7.71257L9.12128 2.84082H4.83783ZM6.68886 3.76799H8.65669L17.3463 15.3865H15.3785L6.68886 3.76799Z"
                                                fill="white" />
                                        </svg>

<svg xmlns="http://www.w3.org/2000/svg" width="24" height="19" fill="none"><path d="M4.838 2.84l5.558 7.432-5.593 6.042H6.06l4.897-5.29 3.956 5.29h4.284l-5.87-7.85 5.205-5.623h-1.259l-4.51 4.872L9.122 2.84H4.838zm1.85.928h1.969l8.69 11.619h-1.969L6.689 3.768z" fill="#fff"/></svg>
